dist/images/svg_sprite/hand.svg

<svg width="45" height="45" viewBox="0 0 45 45" fill="none" xmlns="http://www.w3.org/2000/svg">
<path d="M42.621 17.7116C41.0217 17.4062 39.4638 18.411 39.0739 19.9992L37.3717 26.3762C36.2928 25.693 34.9079 25.7419 33.8789 26.4992C33.8037 26.5581 27.1113 30.8284 27.1113 30.8284C24.7032 32.341 23.2436 34.9966 23.2513 37.8507V44.2457C23.2513 44.6623 23.5873 45 24.0018 45C24.4163 45 24.7523 44.6623 24.7523 44.2457V37.8507C24.7461 35.5159 25.94 33.3432 27.9098 32.1053C27.9098 32.1053 34.7005 27.7725 34.7254 27.7515C35.3264 27.2458 36.2096 27.2749 36.7765 27.8185C37.3464 28.3916 37.364 29.315 36.8165 29.9094L31.8263 33.4342C31.4869 33.674 31.4052 34.1447 31.6434 34.4854C31.8816 34.8264 32.3499 34.9086 32.6893 34.6692L37.7367 31.1028C37.7719 31.0777 37.8052 31.0497 37.8356 31.0192C38.655 30.1897 38.9244 28.9599 38.5268 27.8616L40.5218 20.39C40.7146 19.5837 41.4908 19.0607 42.3065 19.1878C42.9977 19.3366 43.4932 19.948 43.4983 20.6585C43.4994 20.7914 43.4829 20.9233 43.4488 21.0514L40.7469 31.2C40.6442 31.5842 40.443 31.9341 40.1638 32.2154L34.5469 37.8606C33.5586 38.8488 33.0045 40.1931 33.0081 41.5946V44.2457C33.0081 44.6623 33.3442 45 33.7587 45C34.1731 45 34.5092 44.6623 34.5092 44.2457V41.5946C34.507 40.5935 34.9028 39.6333 35.609 38.9272L41.2258 33.2821C41.6916 32.8136 42.0266 32.2305 42.197 31.5908L44.8989 21.4437C44.9671 21.1877 45.0012 20.9236 45.0001 20.6585C44.9928 19.2371 44.0037 18.0114 42.621 17.7116Z" fill="#4054B2"/>
<path d="M17.8903 30.8283C17.8903 30.8283 11.252 26.6041 11.204 26.5632C10.1724 25.7463 8.74026 25.6715 7.62985 26.3761L5.92687 19.9991C5.53841 18.4102 3.98019 17.4047 2.38055 17.7115C1.57542 17.8839 0.875461 18.3804 0.444493 19.0853C0.0138916 19.7907 -0.110708 20.6426 0.100745 21.4422L2.80236 31.5907C2.97276 32.2305 3.30772 32.8135 3.77387 33.282L9.39074 38.9272C10.0977 39.6329 10.4942 40.5931 10.4923 41.5945V44.2457C10.4923 44.6622 10.8284 45 11.2429 45C11.6574 45 11.9934 44.6622 11.9934 44.2457V41.5945C11.9971 40.1931 11.443 38.8488 10.4542 37.8606L4.83736 32.2154C4.55774 31.934 4.35655 31.5841 4.25394 31.2L1.55196 21.0492C1.51861 20.9218 1.50212 20.7903 1.50322 20.6584C1.50799 19.9479 2.00382 19.3362 2.69535 19.1877C3.51147 19.0562 4.29022 19.5811 4.47932 20.3899L6.47474 27.8615C6.07749 28.9599 6.34685 30.1897 7.1659 31.0191C7.19669 31.0497 7.22967 31.0777 7.26522 31.1027L12.3126 34.6662C12.6516 34.9056 13.1199 34.8234 13.3581 34.4824C13.5967 34.1413 13.515 33.671 13.1756 33.4312L8.18542 29.9064C7.63792 29.3116 7.65514 28.3886 8.225 27.8155C8.77837 27.2855 9.63444 27.2428 10.2373 27.715C10.2754 27.7459 17.0917 32.1023 17.0917 32.1023C19.0626 33.3406 20.2569 35.5148 20.2492 37.8506V44.2457C20.2492 44.6622 20.5853 45 20.9998 45C21.4142 45 21.7503 44.6622 21.7503 44.2457V37.8506C21.7583 34.9965 20.2987 32.341 17.8903 30.8283Z" fill="#4054B2"/>
<path d="M34.8486 24.5522C35.1007 24.4237 35.2598 24.1637 35.2598 23.8793V11.3029L42.0222 8.7449C42.3147 8.63441 42.5085 8.35302 42.5085 8.03884C42.5085 7.72467 42.3147 7.44365 42.0222 7.33278L22.7658 0.0486176C22.595 -0.0162059 22.4066 -0.0162059 22.2358 0.0486176L2.97971 7.33278C2.6869 7.44365 2.49341 7.72467 2.49341 8.03884C2.49341 8.35302 2.6869 8.63441 2.97971 8.7449L6.76534 10.1784C6.75288 10.2185 6.74445 10.2602 6.73969 10.3018V17.8449C6.73969 18.2614 7.07574 18.5992 7.49022 18.5992C7.90469 18.5992 8.24074 18.2614 8.24074 17.8449V10.7349L9.7418 11.3029V23.8793C9.7418 24.1637 9.90085 24.4237 10.1533 24.5522L10.7536 24.8539C18.1585 28.5448 26.8537 28.5448 34.2586 24.8539L34.8486 24.5522ZM22.5008 1.56018L39.6263 8.03884L22.5008 14.5179L5.37532 8.03884L22.5008 1.56018ZM33.5817 23.5107C26.6012 26.9875 18.4051 26.9875 11.4246 23.5107L11.2429 23.4164V11.8708L22.2358 16.0294C22.4066 16.0939 22.595 16.0939 22.7658 16.0294L33.7587 11.8708V23.4164L33.5817 23.5107Z" fill="#4054B2"/>
</svg>

<svg width="45" height="45" fill="none" xmlns="http://www.w3.org/2000/svg"><path d="M42.621 17.712a3.063 3.063 0 0 0-3.547 2.287l-1.702 6.377a3.095 3.095 0 0 0-3.493.123c-.075.06-6.768 4.33-6.768 4.33a8.264 8.264 0 0 0-3.86 7.022v6.395c0 .416.336.754.75.754a.753.753 0 0 0 .751-.754V37.85a6.763 6.763 0 0 1 3.158-5.746s6.79-4.332 6.815-4.353a1.534 1.534 0 0 1 2.051.067c.57.573.588 1.496.04 2.09l-4.99 3.525a.757.757 0 0 0-.183 1.051.748.748 0 0 0 1.046.184l5.048-3.566a.775.775 0 0 0 .099-.084 3.027 3.027 0 0 0 .69-3.157l1.996-7.472a1.586 1.586 0 0 1 1.785-1.202 1.513 1.513 0 0 1 1.142 1.863L40.747 31.2a2.275 2.275 0 0 1-.583 1.015l-5.617 5.646a5.261 5.261 0 0 0-1.539 3.734v2.65c0 .417.336.755.75.755a.753.753 0 0 0 .751-.754v-2.651a3.76 3.76 0 0 1 1.1-2.668l5.617-5.645c.466-.468.8-1.051.971-1.691l2.702-10.147a3.027 3.027 0 0 0-2.278-3.732zM17.89 30.828s-6.638-4.224-6.686-4.265a3.088 3.088 0 0 0-3.574-.187L5.927 20a3.06 3.06 0 0 0-3.546-2.287 3.009 3.009 0 0 0-1.937 1.373 3.036 3.036 0 0 0-.343 2.357l2.701 10.149c.17.64.506 1.222.972 1.691l5.617 5.645a3.758 3.758 0 0 1 1.101 2.667v2.652c0 .416.336.754.75.754a.753.753 0 0 0 .751-.754v-2.652a5.259 5.259 0 0 0-1.539-3.733l-5.617-5.646a2.272 2.272 0 0 1-.583-1.015L1.552 21.05a1.513 1.513 0 0 1 1.143-1.861 1.577 1.577 0 0 1 1.784 1.2l1.996 7.473a3.03 3.03 0 0 0 .69 3.157c.032.03.065.059.1.084l5.048 3.563a.748.748 0 0 0 1.045-.184.757.757 0 0 0-.182-1.05l-4.99-3.526a1.514 1.514 0 0 1 .039-2.09 1.537 1.537 0 0 1 2.012-.101c.038.03 6.855 4.387 6.855 4.387a6.761 6.761 0 0 1 3.157 5.749v6.395c0 .416.336.754.75.754a.753.753 0 0 0 .751-.754V37.85a8.263 8.263 0 0 0-3.86-7.023z" fill="#4054B2"/><path d="M34.849 24.552a.755.755 0 0 0 .41-.673V11.303l6.763-2.558a.754.754 0 0 0 0-1.412L22.766.049a.747.747 0 0 0-.53 0L2.98 7.333a.754.754 0 0 0 0 1.412l3.785 1.433a.677.677 0 0 0-.025.124v7.543c0 .416.336.754.75.754.415 0 .75-.338.75-.754v-7.11l1.502.568v12.576c0 .285.159.545.411.673l.6.302a26.332 26.332 0 0 0 23.506 0l.59-.302zM22.5 1.56l17.126 6.48-17.125 6.479-17.126-6.48L22.501 1.56zm11.08 21.95a24.838 24.838 0 0 1-22.156 0l-.182-.094V11.871l10.993 4.158a.75.75 0 0 0 .53 0l10.993-4.158v11.545l-.177.095z" fill="#4054B2"/></svg>
